X:1
T:Title
%%score { ( 1 4 ) | ( 2 3 ) }
L:1/8
Q:1/4=100
M:6/8
K:F
V:1 treble nm="Grand Piano"
V:4 treble 
V:2 bass 
V:3 bass 
V:1
 .[B,DF]2 [DA] [DB]2 [Dc] | B2 A A3 | FGA c2 ^c | d3 z3 | .[B,DF]2 [DA] [DB]2 [Dc] | B2 A A3 | %6
w: J.~Lincoln~Hall * * *||||||
 _e2 e G2 A | [DB]6 | z3 .c3 | [DF]2 [DB] [Fd]2 [Fd] | d2 c G2 A | B3 z3 | [_Ad]2 [Ad] dc[Ad] | %13
w: |||||||
 [Gf]2 [G_e] [Fd]2 c | B2 B B2 A | [DB]6 | [Fd]2 [Fd] [E^c]2 [Ec] | [Fd]3 [DB]3 | [GB]2 [GB] cBG | %19
w: ||||||
 [DF]6 | [Fd]2 [Fd] [E^c]2 [Ec] | [Fd]2 [Fd] [DB]2 [Fd] | d2 c G2 A | d2 c GAB | %24
w: |||||
 [Fd]2 [Fd] [E^c]2 [Ec] | [Fd]3 [DB]3 | [GB]2 [GB] cBG | [DF]6 | [_Ad]2 [Ad] dc[Ad] | %29
w: |||||
 [Gf]2 [G_e] [Fd]2 c | B2 B B2 A |[M:7/4] [DB]6 z2 z2 z4 |] %32
w: |||
V:2
 z G[B,,B,] [B,,B,]2 [B,,B,] | [F,C_E]2 [F,CE] [F,CE]3 | [F,A,_E]2 [F,A,E] [F,A,E]2 [F,A,E] | %3
 z3[K:treble] B3 | z G[B,,B,] [B,,B,]2 [B,,B,] | [F,C_E]2 [F,CE] [F,CE]3 | %6
 [F,A,_E]2 [F,A,E] [F,CE]2 [F,CE] | [B,,B,]6 | [_E,B,]2 [E,B,] [E,B,]2 [E,B,_E] | %9
 [B,,B,]2 [B,,B,] [B,,B,]2 [B,,B,] | [F,A,_E]2 [F,A,E] [F,CE]2 [F,CE] | z3 F3 | %12
 [B,,B,]2 [B,,B,] [B,,B,]2 [B,,B,] | [_E,B,]2 [C,C] [D,=B,]2 [E,C_E] | %14
 [F,DF]2 [F,^CE] [F,=C_E]2 [F,CE] | [B,,B,]6 | [B,,F,]2 [B,,F,] [B,,G,]2 [B,,G,] | [B,,B,]6 | %18
 [_E,B,]2 [E,B,] [E,B,]2 [E,B,_E] | [B,,B,]6 | [B,,F,]2 [B,,F,] [B,,G,]2 [B,,G,] | %21
 [B,,B,]2 [B,,B,] [B,,B,]2 [B,,B,] | [G,B,E]2 [G,B,E] [G,B,E]2 [G,B,E] | [F,A,_E]2 [F,A,E] G,A,B, | %24
 [B,,F,]2 [B,,F,] [B,,G,]2 [B,,G,] | [B,,B,]6 | [_E,B,]2 [E,B,] [E,B,]2 [E,B,_E] | [B,,B,]6 | %28
 [B,,B,]2 [B,,B,] [B,,B,]2 [B,,B,] | [_E,B,]2 [C,C] [D,=B,]2 [E,C_E] | %30
 [F,DF]2 [F,^CE] [F,=C_E]2 [F,CE] |[M:7/4] [B,,B,]6 z2 z2 z4 |] %32
V:3
 .B,,3 z3 | x6 | x6 | [B,,B,]6[K:treble] | .B,,3 z3 | x6 | x6 | x6 | x6 | x6 | x6 | B,,6 | x6 | %13
 x6 | x6 | x6 | x6 | x6 | x6 | x6 | x6 | x6 | x6 | x6 | x6 | x6 | x6 | x6 | x6 | x6 | x6 | %31
[M:7/4] x14 |] %32
V:4
 x6 | x6 | x6 | D6 | x6 | x6 | x6 | x6 | [GB]2 [GB] G-[GB]G | x6 | x6 | [B,D]6 | z3 ._A3 | x6 | %14
 x6 | x6 | x6 | x6 | z3 .G3 | x6 | x6 | x6 | x6 | x6 | x6 | x6 | z3 .G3 | x6 | z3 ._A3 | x6 | x6 | %31
[M:7/4] x14 |] %32

